X:601
T: Hongdu paotai
N: C2107
O: China,Shanxi Zuoquan
S: I, 305]
N: Han
R: Xiaodiao]
M: 2/4
L: 1/16
K: A
e2c2e2f2 | G3FE4 | B3ce2ce | B8 |
e2c2e2f2 | G2c2B2A2 | G3FE4 | E2EFG2F2 | E8

@@@ Tune index: 7156
